X: 10364
T: Donal A' Phumpa
R: reel
M: 4/4
K: Gmajor
GE{F}ED (3BcB {d}BA|GBdB AGED|1 GE{F}ED (3BcB {d}BA|
GBdB A2EF:|2 GB~B2 dB~B2|GBdB (3ABA GF||
~g3d edBe|dGBG AGEG|~g3d edBd|ea{b}a^g (3aba =gf|
gbgf eBdB|GBdB AGED|GB~B2 dB~B2|GBdB (3ABA GF||

